X:140
T:The Maho Snaps
M:6/8
L:1/8
R:jig
K:G
G3 GBd | gdB GAB | cBc EFG | AFD DEF |
G3 GBd | gdB GAB | cAF DFA |1 AGF G2D :|2 AGF G2A |:
d (3Bcd ede | fef gfe | d (3Bcd efg | fd^c d2A |
d (3Bcd ede | fef gfe | dcB Aaf |1 gdB G2A :|2 gdb G2D |]
